X: 20092
T: BRAES OF BALQUITHER
C:
%R: reel
B: Elias Howe "The Musician's Companion" 1843 p.9 #2
S: http://imslp.org/wiki/The_Musician's_Companion_(Howe,_Elias)
Z: 2015 John Chambers <jc:trillian.mit.edu>
M: C
L: 1/8
K: D
% - - - - - - - - - - - - - - - - - - - - - - - - -
DF |\
A2BA A2EF | G2AG GFDF |\
AdBA A2HdD | {D}D2DF {E}D2 ::\
FG |\
A2AA Adcd | B2BB BAFA |\
B2BA A2AF | D2DF E<"^D.C."D |]
% - - - - - - - - - - - - - - - - - - - - - - - - -

%%sep 1 1 500

